src/assets/svg/icons/fa/nuevos/classic/regular/lasso classic regular.svg

<svg xmlns="http://www.w3.org/2000/svg" viewBox="0 0 576 512"><!--! Font Awesome Pro 6.4.0 by @fontawesome - https://fontawesome.com License - https://fontawesome.com/license (Commercial License) Copyright 2023 Fonticons, Inc. --><path d="M576 176c0 97.2-128.9 176-288 176c-14.9 0-29.6-.7-43.9-2c7.7 15.3 11.9 32.4 11.9 50.2C256 461.9 205.9 512 144.2 512H56c-13.3 0-24-10.7-24-24s10.7-24 24-24h88.2c35.2 0 63.8-28.6 63.8-63.8c0-24.9-14.5-47.5-37.1-57.9l-44.3-20.5C50.2 290.1 0 236.6 0 176C0 78.8 128.9 0 288 0S576 78.8 576 176zM288 304c132.5 0 240-57.3 240-128s-107.5-128-240-128S48 105.3 48 176s107.5 128 240 128z"/></svg>

<svg xmlns="http://www.w3.org/2000/svg" viewBox="0 0 576 512"><path d="M576 176C576 273.2 447.1 352 288 352C273.1 352 258.4 351.3 244.1 349.1C251.8 365.3 256 382.4 256 400.2C256 461.9 205.9 512 144.2 512H56C42.75 512 32 501.3 32 488C32 474.7 42.75 464 56 464H144.2C179.4 464 208 435.4 208 400.2C208 375.3 193.5 352.7 170.9 342.2L126.6 321.8C50.2 290.1 0 236.6 0 176C0 78.8 128.9 0 288 0C447.1 0 576 78.8 576 176zM288 304C420.5 304 528 246.7 528 176C528 105.3 420.5 48 288 48C155.5 48 48 105.3 48 176C48 246.7 155.5 304 288 304z"/></svg>
